svgs/sharp-light/mountain-city.svg

<svg xmlns="http://www.w3.org/2000/svg" viewBox="0 0 640 512"><!--! Font Awesome Pro 6.6.0 by @fontawesome - https://fontawesome.com License - https://fontawesome.com/license (Commercial License) Copyright 2024 Fonticons, Inc. --><path d="M288 0l0 16 0 128.4 32 51.2L320 32l160 0 0 176 0 16 16 0 48 0 32 0 32 0 0 272 0 16 32 0 0-16 0-288 0-16-16 0-48 0 0-80 0-16-32 0 0 16 0 80-32 0 0-176 0-16L496 0 304 0 288 0zm80 64l-16 0 0 16 0 64 0 16 16 0 64 0 16 0 0-16 0-64 0-16-16 0-64 0zm16 64l0-32 32 0 0 32-32 0zm-16 64l0 32 16 0 32 0 0 32 0 16 32 0 0-16 0-48 0-16-16 0-48 0-16 0zm128 64l-16 0 0 16 0 64 0 16 16 0 64 0 16 0 0-16 0-64 0-16-16 0-64 0zm16 64l0-32 32 0 0 32-32 0zm-32 64l0 16 0 64 0 16 16 0 64 0 16 0 0-16 0-64 0-16-16 0-64 0-16 0zm32 32l32 0 0 32-32 0 0-32zm-32 96l-20-32L258.9 158.2 240 128l-18.9 30.2L20 480 0 512l37.7 0 404.5 0 37.7 0zm-57.7-32L57.7 480l92-147.2L179.5 370l12.2 15.2 12.6-15L246.5 320l75.8 0 100 160zM240 188.4L302.3 288 239 288l-7.5 0-4.8 5.7-34.4 41L167.7 304 240 188.4z"/></svg>

<svg xmlns="http://www.w3.org/2000/svg" viewBox="0 0 640 512"><!--! Font Awesome Pro 6.4.0 by @fontawesome - https://fontawesome.com License - https://fontawesome.com/license (Commercial License) Copyright 2023 Fonticons, Inc. --><path d="M288 0V16 144.4l32 51.2V32H480V208v16h16 48 32 32V496v16h32V496 208 192H624 576V112 96H544v16 80H512V16 0H496 304 288zm80 64H352V80v64 16h16 64 16V144 80 64H432 368zm16 64V96h32v32H384zm-16 64v32h16 32v32 16h32V256 208 192H432 384 368zm128 64H480v16 64 16h16 64 16V336 272 256H560 496zm16 64V288h32v32H512zm-32 64v16 64 16h16 64 16V464 400 384H560 496 480zm32 32h32v32H512V416zm-32 96l-20-32L258.9 158.2 240 128l-18.9 30.2L20 480 0 512H37.7 442.3 480zm-57.7-32H57.7l92-147.2L179.5 370l12.2 15.2 12.6-15L246.5 320h75.8l100 160zM240 188.4L302.3 288H239h-7.5l-4.8 5.7-34.4 41L167.7 304 240 188.4z"/></svg>
